X:131
%%musicspace -5
%%topspace -50
T:Horizonto
C:Paul James
M:6/8
L:1/8
K:Am
"Am"efe dec | dBc ABG | E2A ABc | "G"BAB GAB | 
"F"c2c cdc | "G"BAB GAB | "Am"cBA "G"BAG | "Am"A3 A3 :: 
"F"[FA]2[FA] ABc | [FA]2[FA] ABc | "Am"[EA]2[EA] ABc | [EA]2[EA] ABc |"F"[FA]2[FA] ABc | 
[FA]2[FA] ABc |1 "C"efe dec | "G"dBc ABG :|2 "D"[^FA]2[FA] ABc | "D7"[^FA]2[FA] ABc ||
"F"f2 e2 dc | "G"B3 Bcd | "C"e2 d2 cB | "F"A3 ABc | "G"d2 c2 BA | "E"^G3 GAB | "F"cBc "G"dcd | "E"e3 e3 | 
"F"f2 g2 f2 | "G"B3 Bcd | "C"e2 f2 e2 | "F"A3 ABc | "G"d2 c2 BA | "E"^G3 GAB | "F"cBA "G"BAG | "Am"A3 A |]

